public/images/broadcasters/bbc.svg

<svg fill="#fff" viewBox="0 0 112 32" xmlns="http://www.w3.org/2000/svg"><path d="m111.99999.00004444v31.99999996h-31.9999995v-31.99999996zm-39.9999781-.00004444v32h-32v-32zm-40.0000119 0v32h-32v-32zm65.469329 6.80826869c-1.4398893 0-2.7398897.21400007-3.9000012.64155575-1.1603336.42800013-2.1555561 1.0448892-2.9852231 1.85066722-.8302224.80622244-1.4652226 1.77277834-1.9055561 2.89944534-.4406668 1.1270003-.660778 2.3896673-.660778 3.7876678 0 1.4312226.211889 2.7186674.6353336 3.8617789.4232223 1.1435559 1.0330003 2.1097784 1.8293338 2.8994453.7960003.7895558 1.7697783 1.3942226 2.9217787 1.8136672 1.151667.4194446 2.4474452.6292224 3.8872234.6292224 1.0837781 0 2.1172228-.1195556 3.0997789-.357889.982111-.2382223 1.845889-.5632224 2.591445-.9745558v-3.4300011c-1.575334.9708892-3.2945566 1.4558894-5.1575571 1.4558894-1.219667 0-2.2572229-.2302223-3.1124454-.6908891-.8554447-.4604446-1.5076671-1.1308893-1.9562228-2.0111117-.4491112-.8798892-.6733335-1.9451117-.6733335-3.1955565 0-1.2498893.2325556-2.3110007.6985557-3.1831121.465778-.871778 1.1346671-1.5380005 2.0072229-1.9986673.8721113-.4604445 1.9266672-.6910002 3.1632231-.6910002.8975559 0 1.7531117.1194445 2.5660011.3577779.813111.2386668 1.566556.5883335 2.261334 1.048667v-3.50388994c-.762223-.39477789-1.588001-.69477798-2.477223-.90066693-.8892227-.20544451-1.8336675-.30844454-2.83289-.30844454zm-41.7140902.19173339h-6.7552242v18.00000002h7.1713355c1.4195559 0 2.6350007-.2096614 3.6467788-.6293282 1.011667-.4193334 1.7906672-1.0153336 2.3374452-1.787445.5464446-.771778.8198891-1.6950005.8198891-2.769223 0-1.0907781-.2813334-2.0180006-.8442225-2.7818897-.5631113-.7634447-1.3748893-1.3216671-2.4354452-1.6741116.7667781-.368889 1.3462227-.8685558 1.7377783-1.4978894.3916668-.6293335.5874447-1.3720004.5874447-2.2280006 0-1.493556-.546778-2.63900081-1.6397783-3.43633438-1.0934448-.79688913-2.6354452-1.19577814-4.6260014-1.19577814zm-40.0000119 0h-6.75522422v18.00000002h7.17133542c1.419556 0 2.6348897-.2096614 3.64689-.6293282 1.0114448-.4193334 1.7905561-1.0153336 2.337334-1.787445.5465558-.771778.8200003-1.6950005.8200003-2.769223 0-1.0907781-.2814445-2.0180006-.8444447-2.7818897-.5628891-.7634447-1.3747782-1.3216671-2.4353341-1.6741116.766778-.368889 1.3461116-.8685558 1.7377783-1.4978894.3916668-.6293335.5874447-1.3720004.5874447-2.2280006 0-1.493556-.5468891-2.63900081-1.6398894-3.43633438-1.0933337-.79688913-2.6353341-1.19577814-4.6258903-1.19577814zm40.1223564 10.22093642c2.2352229 0 3.3532232.8225558 3.3532232 2.4672229 0 .7721114-.293889 1.3636671-.8811114 1.7747783-.5874446.4114446-1.4280004.616778-2.5210007.616778h-3.1817787v-4.8587792zm-40.0000119 0c2.235334 0 3.3532232.8225558 3.3532232 2.4672229 0 .7721114-.2937779 1.3636671-.8811114 1.7747783-.5874446.4114446-1.4280004.616778-2.5210007.616778h-3.1817787v-4.8587792zm39.5350006-7.30065777c1.9415562 0 2.9126676.71355577 2.9126676 2.13977837 0 .738778-.248889 1.3134449-.7465558 1.7245561-.497889.4114446-1.2198892.616778-2.1661118.616778h-2.7656674v-4.48111247zm-40.0000119 0c1.9415562 0 2.9126676.71355577 2.9126676 2.13977837 0 .738778-.2490001 1.3134449-.7465558 1.7245561-.497889.4114446-1.2198893.616778-2.1661118.616778h-2.7656674v-4.48111247z"/></svg>

<svg xmlns="http://www.w3.org/2000/svg" viewBox="0 0 112 32" fill="white"><title>British Broadcasting Corporation</title><path d="M111.99999,4.44444577e-05 L111.99999,32.0000444 L79.9999905,32.0000444 L79.9999905,4.44444577e-05 L111.99999,4.44444577e-05 Z M72.0000119,-3.55271368e-15 L72.0000119,32 L40.0000119,32 L40.0000119,-3.55271368e-15 L72.0000119,-3.55271368e-15 Z M32,-3.55271368e-15 L32,32 L-1.13686838e-13,32 L-1.13686838e-13,-3.55271368e-15 L32,-3.55271368e-15 Z M97.469329,6.80826869 C96.0294397,6.80826869 94.7294393,7.02226876 93.5693278,7.44982444 C92.4089942,7.87782457 91.4137717,8.49471364 90.5841047,9.30049166 C89.7538823,10.1067141 89.1188821,11.07327 88.6785486,12.199937 C88.2378818,13.3269373 88.0177706,14.5896043 88.0177706,15.9876048 C88.0177706,17.4188274 88.2296596,18.7062722 88.6531042,19.8493837 C89.0763265,20.9929396 89.6861045,21.9591621 90.482438,22.748829 C91.2784383,23.5383848 92.2522163,24.1430516 93.4042167,24.5624962 C94.5558837,24.9819408 95.8516619,25.1917186 97.2914401,25.1917186 C98.3752182,25.1917186 99.4086629,25.072163 100.391219,24.8338296 C101.37333,24.5956073 102.237108,24.2706072 102.982664,23.8592738 L102.982664,23.8592738 L102.982664,20.4292727 C101.40733,21.4001619 99.6881074,21.8851621 97.8251069,21.8851621 C96.6054399,21.8851621 95.567884,21.6549398 94.7126615,21.194273 C93.8572168,20.7338284 93.2049944,20.0633837 92.7564387,19.1831613 C92.3073275,18.3032721 92.0831052,17.2380496 92.0831052,15.9876048 C92.0831052,14.7377155 92.3156608,13.6766041 92.7816609,12.8044927 C93.2474389,11.9327147 93.916328,11.2664922 94.7888838,10.8058254 C95.6609951,10.3453809 96.715551,10.1148252 97.9521069,10.1148252 C98.8496628,10.1148252 99.7052186,10.2342697 100.518108,10.4726031 C101.331219,10.7112699 102.084664,11.0609366 102.779442,11.5212701 L102.779442,11.5212701 L102.779442,8.01738016 C102.017219,7.62260227 101.191441,7.32260218 100.302219,7.11671323 C99.4129963,6.91126872 98.4685515,6.80826869 97.469329,6.80826869 Z M55.7552388,7.00000208 L49.0000146,7.00000208 L49.0000146,25.0000021 L56.1713501,25.0000021 C57.590906,25.0000021 58.8063508,24.7903407 59.8181289,24.3706739 C60.8297959,23.9513405 61.6087961,23.3553403 62.1555741,22.5832289 C62.7020187,21.8114509 62.9754632,20.8882284 62.9754632,19.8140059 C62.9754632,18.7232278 62.6941298,17.7960053 62.1312407,17.0321162 C61.5681294,16.2686715 60.7563514,15.7104491 59.6957955,15.3580046 C60.4625736,14.9891156 61.0420182,14.4894488 61.4335738,13.8601152 C61.8252406,13.2307817 62.0210185,12.4881148 62.0210185,11.6321146 C62.0210185,10.1385586 61.4742405,8.99311379 60.3812402,8.19578022 C59.2877954,7.39889109 57.745795,7.00000208 55.7552388,7.00000208 L55.7552388,7.00000208 Z M15.7552269,7.00000208 L9.00000268,7.00000208 L9.00000268,25.0000021 L16.1713381,25.0000021 C17.5908941,25.0000021 18.8062278,24.7903407 19.8182281,24.3706739 C20.8296729,23.9513405 21.6087842,23.3553403 22.1555621,22.5832289 C22.7021179,21.8114509 22.9755624,20.8882284 22.9755624,19.8140059 C22.9755624,18.7232278 22.6941179,17.7960053 22.1311177,17.0321162 C21.5682286,16.2686715 20.7563395,15.7104491 19.6957836,15.3580046 C20.4625616,14.9891156 21.0418952,14.4894488 21.4335619,13.8601152 C21.8252287,13.2307817 22.0210066,12.4881148 22.0210066,11.6321146 C22.0210066,10.1385586 21.4741175,8.99311379 20.3811172,8.19578022 C19.2877835,7.39889109 17.7457831,7.00000208 15.7552269,7.00000208 L15.7552269,7.00000208 Z M55.8775833,17.2209385 C58.1128062,17.2209385 59.2308065,18.0434943 59.2308065,19.6881614 C59.2308065,20.4602728 58.9369175,21.0518285 58.3496951,21.4629397 C57.7622505,21.8743843 56.9216947,22.0797177 55.8286944,22.0797177 L55.8286944,22.0797177 L52.6469157,22.0797177 L52.6469157,17.2209385 Z M15.8775714,17.2209385 C18.1129054,17.2209385 19.2307946,18.0434943 19.2307946,19.6881614 C19.2307946,20.4602728 18.9370167,21.0518285 18.3496832,21.4629397 C17.7622386,21.8743843 16.9216828,22.0797177 15.8286825,22.0797177 L15.8286825,22.0797177 L12.6469038,22.0797177 L12.6469038,17.2209385 Z M55.412572,9.92028073 C57.3541282,9.92028073 58.3252396,10.6338365 58.3252396,12.0600591 C58.3252396,12.7988371 58.0763506,13.373504 57.5786838,13.7846152 C57.0807948,14.1960598 56.3587946,14.4013932 55.412572,14.4013932 L55.412572,14.4013932 L52.6469046,14.4013932 L52.6469046,9.92028073 Z M15.4125601,9.92028073 C17.3541163,9.92028073 18.3252277,10.6338365 18.3252277,12.0600591 C18.3252277,12.7988371 18.0762276,13.373504 17.5786719,13.7846152 C17.0807829,14.1960598 16.3587826,14.4013932 15.4125601,14.4013932 L15.4125601,14.4013932 L12.6468927,14.4013932 L12.6468927,9.92028073 Z"></path></svg>
